X:18123
T:Vals efter Johan och Klas Blom
C:Ingvar Fohlin
M:3/4
L:1/8
K:C
G2 EG EG|A2 FA BA|G2 Bd fd|c2 ce g2|\
G2 EG EG|A2 FA BA|G2 Bd fd|c6:|
|:e2 eg ec|d2 df dB|G2 Bd fd|c2 ce g2|\
e2 eg ec|d2 df dB|G2 Bd fd|c6:|
